assets/icons/mail/ok-filled.svg

<?xml version="1.0" encoding="UTF-8" standalone="no"?>
<svg
   viewBox="0 0 24 24"
   height="24"
   width="24"
   version="1.1"
   id="svg4"
   sodipodi:docname="ok.svg"
   inkscape:version="1.2 (1:1.2.1+202207142221+cd75a1ee6d)"
   xmlns:inkscape="http://www.inkscape.org/namespaces/inkscape"
   xmlns:sodipodi="http://sodipodi.sourceforge.net/DTD/sodipodi-0.dtd"
   xmlns="http://www.w3.org/2000/svg"
   xmlns:svg="http://www.w3.org/2000/svg">
  <defs
     id="defs8" />
  <sodipodi:namedview
     id="namedview6"
     pagecolor="#ffffff"
     bordercolor="#666666"
     borderopacity="1.0"
     inkscape:pageshadow="2"
     inkscape:pageopacity="0.0"
     inkscape:pagecheckerboard="0"
     showgrid="true"
     inkscape:snap-page="true"
     inkscape:zoom="28"
     inkscape:cx="14.910714"
     inkscape:cy="11.714286"
     inkscape:window-width="1920"
     inkscape:window-height="1043"
     inkscape:window-x="0"
     inkscape:window-y="0"
     inkscape:window-maximized="1"
     inkscape:current-layer="svg4"
     inkscape:showpageshadow="2"
     inkscape:deskcolor="#d1d1d1">
    <inkscape:grid
       type="xygrid"
       id="grid6" />
  </sodipodi:namedview>
  <path
     id="path291"
     style="color:#000000;fill:#808080;fill-opacity:1"
     d="m 4.7871094,3 c -0.6769416,0.00559 -1.2506057,0.048153 -1.7597656,0.3027344 -0.3394406,0.16972 -0.6300066,0.462436 -0.796875,0.8378906 -0.1668693,0.3754546 -0.2304688,0.8177119 -0.2304688,1.359375 v 2.5 5 2.5 c 0,0.541661 0.063599,0.983919 0.2304688,1.359375 0.1668684,0.375456 0.4574344,0.66817 0.796875,0.837891 0.5091599,0.25458 1.082824,0.297134 1.7597656,0.302734 0.2256468,0.0019 0.4628921,0 0.7128906,0 h 6.396484 c -0.339774,-0.393719 -0.321094,-0.982141 0.04297,-1.353516 l 0.707031,-0.707031 c 0.39053,-0.390369 1.023533,-0.390369 1.414063,0 l 1.939453,1.939453 3.939453,-3.939453 c 0.149269,-0.149586 0.342084,-0.248045 0.550781,-0.28125 0.316188,-0.0498 0.637109,0.05475 0.863282,0.28125 l 0.646484,0.646485 v -1.585938 -5 -2.5 c 0,-0.5416631 -0.0636,-0.9839204 -0.230469,-1.359375 -0.16687,-0.3754546 -0.457432,-0.6681706 -0.796875,-0.8378906 -0.678879,-0.3394406 -1.472663,-0.3027344 -2.472656,-0.3027344 h -13 c -0.2499985,0 -0.4872438,-0.00186 -0.7128906,0 z m 0.2285156,3 6.984375,4.216797 6.988281,-4.216797 0.355469,0.5273438 -7.34375,5.2949222 -7.3417969,-5.275391 z"
     sodipodi:nodetypes="cccsccssscscccccccccccssssscccccccc" />
  <path
     style="color:#000000;fill:#808080;-inkscape-stroke:none"
     d="m 20.646484,14.646484 -4.646484,4.646485 -2.646484,-2.646485 -0.707032,0.707032 3.353516,3.353515 5.353516,-5.353515 z"
     id="path453" />
</svg>

<svg height="24" width="24" xmlns="http://www.w3.org/2000/svg"><path style="color:#000;fill:gray;fill-opacity:1" d="M4.787 3c-.677.006-1.25.048-1.76.303-.34.17-.63.462-.797.838C2.064 4.516 2 4.958 2 5.5v10c0 .542.064.984.23 1.36.167.375.458.668.797.837.51.255 1.083.297 1.76.303.226.002.463 0 .713 0h6.396a1 1 0 0 1 .043-1.354l.707-.707a1 1 0 0 1 1.415 0L16 17.88l3.94-3.94a1 1 0 0 1 1.414 0l.646.647V5.5c0-.542-.064-.984-.23-1.36a1.72 1.72 0 0 0-.797-.837C20.293 2.963 19.5 3 18.5 3h-13c-.25 0-.487-.002-.713 0zm.229 3L12 10.217 18.988 6l.356.527L12 11.822 4.658 6.547z"/><path style="color:#000;fill:gray;-inkscape-stroke:none" d="M20.646 14.646 16 19.293l-2.646-2.647-.708.708L16 20.707l5.354-5.353z"/></svg>
